Improvs/dist/images/ryan_template/step1.svg

<svg width="20" height="20" viewBox="0 0 20 20" fill="none" xmlns="http://www.w3.org/2000/svg">
<path d="M15.3917 14.0263L15.7167 16.6596C15.8 17.3513 15.0584 17.8346 14.4667 17.4763L10.975 15.4013C10.5917 15.4013 10.2167 15.3763 9.85004 15.3263C10.4667 14.6013 10.8334 13.6846 10.8334 12.693C10.8334 10.3263 8.78337 8.40966 6.25004 8.40966C5.28337 8.40966 4.39171 8.68464 3.65004 9.16797C3.62504 8.95964 3.6167 8.75129 3.6167 8.53463C3.6167 4.74296 6.90837 1.66797 10.975 1.66797C15.0417 1.66797 18.3334 4.74296 18.3334 8.53463C18.3334 10.7846 17.175 12.7763 15.3917 14.0263Z" stroke="#00091D" stroke-width="1.5" stroke-linecap="round" stroke-linejoin="round"/>
<path d="M10.8332 12.6935C10.8332 13.6851 10.4665 14.6018 9.84984 15.3268C9.02484 16.3268 7.7165 16.9685 6.24984 16.9685L4.07484 18.2601C3.70817 18.4851 3.2415 18.1768 3.2915 17.7518L3.49983 16.1101C2.38317 15.3351 1.6665 14.0935 1.6665 12.6935C1.6665 11.2268 2.44984 9.93513 3.64984 9.16847C4.39151 8.68513 5.28317 8.41016 6.24984 8.41016C8.78317 8.41016 10.8332 10.3268 10.8332 12.6935Z" stroke="#00091D" stroke-width="1.5" stroke-linecap="round" stroke-linejoin="round"/>
</svg>

<svg width="20" height="20" fill="none" xmlns="http://www.w3.org/2000/svg"><path d="M15.392 14.026l.325 2.634c.083.691-.659 1.175-1.25.816l-3.492-2.075c-.383 0-.758-.025-1.125-.075a4.05 4.05 0 00.983-2.633c0-2.367-2.05-4.283-4.583-4.283-.967 0-1.858.275-2.6.758a5.282 5.282 0 01-.033-.633c0-3.792 3.291-6.867 7.358-6.867s7.358 3.075 7.358 6.867c0 2.25-1.158 4.241-2.941 5.491z" stroke="#00091D" stroke-width="1.5" stroke-linecap="round" stroke-linejoin="round"/><path d="M10.833 12.694a4.05 4.05 0 01-.983 2.633c-.825 1-2.133 1.641-3.6 1.641L4.075 18.26c-.367.225-.834-.083-.784-.508L3.5 16.11c-1.117-.775-1.833-2.016-1.833-3.416 0-1.467.783-2.759 1.983-3.526a4.736 4.736 0 012.6-.758c2.533 0 4.583 1.917 4.583 4.284z" stroke="#00091D" stroke-width="1.5" stroke-linecap="round" stroke-linejoin="round"/></svg>
